icons/outline/chalkboard-teacher.svg

<svg width="24" height="24" viewBox="0 0 24 24" fill="none" xmlns="http://www.w3.org/2000/svg">
<path d="M8 19H5C3.89543 19 3 18.1046 3 17V7C3 5.89543 3.89543 5 5 5H19C20.1046 5 21 5.89543 21 7V18C21 18.5523 20.5523 19 20 19V19" stroke="black" stroke-width="2" stroke-linecap="round"/>
<path d="M12 14C12 14.5304 12.2107 15.0391 12.5858 15.4142C12.9609 15.7893 13.4696 16 14 16C14.5304 16 15.0391 15.7893 15.4142 15.4142C15.7893 15.0391 16 14.5304 16 14C16 13.4696 15.7893 12.9609 15.4142 12.5858C15.0391 12.2107 14.5304 12 14 12C13.4696 12 12.9609 12.2107 12.5858 12.5858C12.2107 12.9609 12 13.4696 12 14Z" stroke="black" stroke-width="2" stroke-linecap="round"/>
<path d="M17 19C17 18.4696 16.7893 17.9609 16.4142 17.5858C16.0391 17.2107 15.5304 17 15 17H13C12.4696 17 11.9609 17.2107 11.5858 17.5858C11.2107 17.9609 11 18.4696 11 19" stroke="black" stroke-width="2" stroke-linecap="round"/>
</svg>

<!--
-->
<svg
  xmlns="http://www.w3.org/2000/svg"
  width="24"
  height="24"
  viewBox="0 0 24 24"
  fill="none"
  stroke="currentColor"
  stroke-width="2"
  stroke-linecap="round"
  stroke-linejoin="round"
>
  <path d="M8 19h-3c-1.105 0 -2 -.895 -2 -2v-10c0 -1.105 .895 -2 2 -2h14c1.105 0 2 .895 2 2v11c0 .552 -.448 1 -1 1v0" stroke="black" stroke-width="2" stroke-linecap="round" />
  <path d="M12 14c0 .53 .211 1.039 .586 1.414c.375 .375 .884 .586 1.414 .586c.53 0 1.039 -.211 1.414 -.586c.375 -.375 .586 -.884 .586 -1.414c0 -.53 -.211 -1.039 -.586 -1.414c-.375 -.375 -.884 -.586 -1.414 -.586c-.53 0 -1.039 .211 -1.414 .586c-.375 .375 -.586 .884 -.586 1.414z" stroke="black" stroke-width="2" stroke-linecap="round" />
  <path d="M17 19c0 -.53 -.211 -1.039 -.586 -1.414c-.375 -.375 -.884 -.586 -1.414 -.586h-2c-.53 0 -1.039 .211 -1.414 .586c-.375 .375 -.586 .884 -.586 1.414" stroke="black" stroke-width="2" stroke-linecap="round" />
</svg>
